//@author: elliotwoods
//@help: multiply a texture by a color value
//@tags: texture
//@credits: 

Texture2D texture2d : PREVIOUS;
float4 Color <bool color=true;String uiname="Color";> = { 1.0f,1.0f,1.0f,1.0f };

SamplerState linearSampler : IMMUTABLE
{
    Filter = MIN_MAG_MIP_LINEAR;
    AddressU = Clamp;
    AddressV = Clamp;
};

struct psInput
{
	float4 p : SV_Position;
	float2 uv : TEXCOORD0;
};


float4 PS(psInput input) : SV_Target
{
	float4 c = texture2d.Sample(linearSampler,input.uv);
	return c * Color;
}

technique10 Process
{
	pass P0
	{
		SetPixelShader(CompileShader(ps_4_0,PS()));
	}
}



